modules/hawcons-stroke/icons/icon-15-two-fingers-resize-out.svg

<?xml version="1.0" encoding="UTF-8" standalone="no"?>
<svg width="32px" height="32px" viewBox="0 0 32 32" version="1.1" xmlns="http://www.w3.org/2000/svg" xmlns:xlink="http://www.w3.org/1999/xlink" xmlns:sketch="http://www.bohemiancoding.com/sketch/ns">
    <!-- Generator: Sketch 3.0.3 (7891) - http://www.bohemiancoding.com/sketch -->
    <title>icon 15 two fingers resize out</title>
    <desc>Created with Sketch.</desc>
    <defs></defs>
    <g id="Page-1" stroke="none" stroke-width="1" fill="none" fill-rule="evenodd" sketch:type="MSPage">
        <g id="icon-15-two-fingers-resize-out" sketch:type="MSArtboardGroup" fill="#929292">
            <path d="M6.1794918,7.1794918 L6.88659858,7.88659858 L2.77319715,12 L6,12 L6,13 L1,13 L1,8 L2,8 L2,11.3589836 L6.1794918,7.1794918 L6.1794918,7.1794918 Z M7.8205082,6.8205082 L7.11340142,6.11340142 L11.2268028,2 L8,2 L8,1 L13,1 L13,6 L12,6 L12,2.64101641 L7.8205082,6.8205082 L7.8205082,6.8205082 Z M31,23.5 C31,28.1944206 27.1944206,32 22.5,32.0000003 C19.3870848,32.0000003 16.101807,30.5474856 13.8408204,26.4282229 C10.5773317,20.4825159 6.40385286,16.5832077 8.39111327,14.5959473 C9.81276236,13.1742982 12.0448416,14.5381668 14,16.3667868 L14,16.3667868 L14,7.50840855 C14,6.11541748 15.1192881,5 16.5,5 C17.1382496,5 17.7173504,5.23666852 18.1571056,5.62673579 C18.5115762,4.67519131 19.4268195,4 20.5,4 C21.8903379,4 23,5.12083549 23,6.50345613 L23,13.5021366 C23.4178303,13.1873681 23.937197,13 24.5,13 C25.8903379,13 27,14.1182256 27,15.4976267 L27,15.5110883 C27.4178303,15.1985158 27.937197,15.014191 28.5,15.014191 C29.8903379,15.014191 31,16.1335355 31,17.5143168 L31,23.5 L31,23.5 Z M22.5,31 C18.7402849,30.9995418 16.5099958,28.9488875 14.7473755,25.9830936 C10.835362,19.4007216 8.03386293,16.3887562 9.12103271,15.2957153 C10.2316298,14.1791206 12.9416004,16.5979243 15,18.7983451 L15,7.50524116 C15,6.66712976 15.6715729,6 16.5,6 C17.3342028,6 18,6.67391942 18,7.50524116 L18,18 L19,18 L19,6.49089813 C19,5.67622006 19.6715729,5 20.5,5 C21.3342028,5 22,5.66749783 22,6.49089813 L22,17 L23,17 L23,15.5064385 C23,14.6715406 23.6715729,14 24.5,14 C25.3342028,14 26,14.6744555 26,15.5064385 L26,18 L27,18 L27,17.5016756 C27,16.6711894 27.6715729,16 28.5,16 C29.3342028,16 30,16.6723231 30,17.5016756 L30,19.7491622 L30,23.5 C30,27.6421358 26.6421358,31 22.5,31 L22.5,31 L22.5,31 Z" id="two-fingers-resize-out" sketch:type="MSShapeGroup"></path>
        </g>
    </g>
</svg>

<svg width="32" height="32" xmlns="http://www.w3.org/2000/svg"><path d="M6.18 7.18l.707.707L2.773 12H6v1H1V8h1v3.359l4.18-4.18zm1.64-.36l-.707-.707L11.227 2H8V1h5v5h-1V2.641l-4.18 4.18zM31 23.5a8.5 8.5 0 0 1-8.5 8.5c-3.113 0-6.398-1.453-8.66-5.572-3.263-5.945-7.436-9.845-5.449-11.832 1.422-1.422 3.654-.058 5.609 1.77V7.509a2.5 2.5 0 0 1 4.157-1.881A2.499 2.499 0 0 1 20.5 4C21.89 4 23 5.12 23 6.503v7A2.485 2.485 0 0 1 24.5 13c1.39 0 2.5 1.118 2.5 2.498v.013a2.495 2.495 0 0 1 1.5-.497c1.39 0 2.5 1.12 2.5 2.5V23.5zM22.5 31c-3.76 0-5.99-2.051-7.753-5.017-3.912-6.582-6.713-9.594-5.626-10.687 1.11-1.117 3.82 1.302 5.879 3.502V7.505a1.499 1.499 0 1 1 3 0V18h1V6.49a1.501 1.501 0 0 1 3 0V17h1v-1.494a1.5 1.5 0 1 1 3 0V18h1v-.498a1.5 1.5 0 1 1 3 0V23.5a7.5 7.5 0 0 1-7.5 7.5z" fill="#929292" fill-rule="evenodd"/></svg>
